Sardi Mono Papirus Dark/16x16/actions/amarok_cart_remove.svg

<?xml version="1.0" encoding="UTF-8" standalone="no"?>
<!-- Created with Inkscape (http://www.inkscape.org/) -->
<svg id="svg7384" xmlns:rdf="http://www.w3.org/1999/02/22-rdf-syntax-ns#" style="enable-background:new" xmlns="http://www.w3.org/2000/svg" xmlns:osb="http://www.openswatchbook.org/uri/2009/osb" height="16" width="16" version="1.1" xmlns:cc="http://creativecommons.org/ns#" xmlns:dc="http://purl.org/dc/elements/1.1/">
 <metadata id="metadata90">
  <rdf:RDF>
   <cc:Work rdf:about="">
    <dc:format>image/svg+xml</dc:format>
    <dc:type rdf:resource="http://purl.org/dc/dcmitype/StillImage"/>
    <dc:title>Paper Symbolic Icon Theme</dc:title>
   </cc:Work>
  </rdf:RDF>
 </metadata>
 <title id="title8473">Paper Symbolic Icon Theme</title>
 <g id="layer12" transform="translate(-585 -41)">
  <path id="rect4139" opacity=".72" d="m5 1c-0.554 0-1 0.446-1 1v3h-2c-0.554 0-1 0.446-1 1v8c0 0.554 0.446 1 1 1h7v-3-1h6v-5c0-0.554-0.446-1-1-1h-2v-3c0-0.554-0.446-1-1-1h-6zm1 2h4v2h-4v-2zm4 9v2h6v-2h-6z" transform="translate(585 41)" fill="#fff"/>
  <path id="path4162" opacity=".72" d="m597 51v2h-2v2h2v2h2v-2h2v-2h-2v-2h-2z" fill="none"/>
 </g>
</svg>

<?xml version="1.0" encoding="UTF-8" standalone="no"?>
<svg xmlns="http://www.w3.org/2000/svg" width="16" height="16" viewBox="0 0 16 16">
 <defs>
  <style type="text/css" id="current-color-scheme">
   .ColorScheme-Text { color:#d3dae3; }
  </style>
 </defs>
 <path style="fill:currentColor;opacity:1" class="ColorScheme-Text" d="M 5 1 C 4.446 1 4 1.446 4 2 L 4 5 L 2 5 C 1.446 5 1 5.446 1 6 L 1 14 C 1 14.554 1.446 15 2 15 L 9 15 L 9 11 L 15 11 L 15 6 C 15 5.446 14.554 5 14 5 L 12 5 L 12 2 C 12 1.446 11.554 1 11 1 L 5 1 z M 6 3 L 10 3 L 10 5 L 6 5 L 6 3 z M 10 12 L 10 14 L 16 14 L 16 12 L 10 12 z"/>
</svg>
